archdroid-icon-theme/Archdroid-Teal/apps/scalable/xfce4-menueditor.svg

<?xml version="1.0" encoding="UTF-8" standalone="no"?>
<svg
   xmlns:dc="http://purl.org/dc/elements/1.1/"
   xmlns:cc="http://creativecommons.org/ns#"
   xmlns:rdf="http://www.w3.org/1999/02/22-rdf-syntax-ns#"
   xmlns:svg="http://www.w3.org/2000/svg"
   xmlns="http://www.w3.org/2000/svg"
   xmlns:sodipodi="http://sodipodi.sourceforge.net/DTD/sodipodi-0.dtd"
   xmlns:inkscape="http://www.inkscape.org/namespaces/inkscape"
   width="48"
   height="48"
   viewBox="0 0 36 48.00000000000001"
   id="svg2"
   version="1.1"
   inkscape:version="0.91 r13725"
   sodipodi:docname="xfce4-menueditor.svg"
   style="fill:#009688">
  <metadata
     id="metadata10">
    <rdf:RDF>
      <cc:Work
         rdf:about="">
        <dc:format>image/svg+xml</dc:format>
        <dc:type
           rdf:resource="http://purl.org/dc/dcmitype/StillImage" />
        <dc:title></dc:title>
      </cc:Work>
    </rdf:RDF>
  </metadata>
  <defs
     id="defs8" />
  <sodipodi:namedview
     pagecolor="#ffffff"
     bordercolor="#666666"
     borderopacity="1"
     objecttolerance="10"
     gridtolerance="10"
     guidetolerance="10"
     inkscape:pageopacity="0"
     inkscape:pageshadow="2"
     inkscape:window-width="1366"
     inkscape:window-height="713"
     id="namedview6"
     showgrid="false"
     inkscape:snap-bbox="true"
     inkscape:bbox-nodes="true"
     inkscape:snap-intersection-paths="false"
     inkscape:object-paths="false"
     inkscape:object-nodes="false"
     inkscape:zoom="9.79741621669708"
     inkscape:cx="24.30856155341062"
     inkscape:cy="13.15839927940643"
     inkscape:window-x="0"
     inkscape:window-y="30"
     inkscape:window-maximized="1"
     inkscape:current-layer="svg2"
     fit-margin-top="0"
     fit-margin-left="0"
     fit-margin-right="0"
     fit-margin-bottom="0" />
  <path
     id="path4140"
     style="fill:#009688"
     d="m 0.0025000000000031,34.4975 0,7.5 7.5,0 L 29.63250000000001,19.86750000000001 22.13249999999998,12.36749999999999 0.0025000000000119,34.49749999999999 Z M 35.41250000000001,14.0875 c 0.78,-0.78000000000001 0.78,-2.05000000000001 0,-2.83000000000001 l -4.67,-4.669999999999996 c -0.78000000000001,-0.78 -2.05000000000002,-0.78 -2.83,0 L 24.25249999999999,10.2475 31.7525,17.74749999999999 l 3.66000000000001,-3.66 z M 0,12 l 0,3.99999999999999 15.17578125,0 4,-4 -19.17578125,0 z m 0,9.999999999999978 0,4.00000000000001 5.173828125,0 4.001953125,-4 -9.17578125,-1e-14 z m 30.82421875,0 -4,4.00000000000001 9.17578125,0 0,-4 -5.17578125,0 z m -10,10.00000000000001 L 16.826171875,36 36,36 l 0,-4.00000000000001 -15.17578125,0 z"
     inkscape:connector-curvature="0" />
</svg>

<svg xmlns="http://www.w3.org/2000/svg" width="48" viewBox="0 0 36 48.00000000000001" fill="#009688"><path d="m.003 34.498v7.5h7.5l22.13-22.13-7.5-7.5-22.13 22.13m35.41-20.41c.78-.78.78-2.05 0-2.83l-4.67-4.67c-.78-.78-2.05-.78-2.83 0l-3.66 3.66 7.5 7.5 3.66-3.66zm-35.413-2.088v4h15.176l4-4h-19.18m0 10v4h5.174l4-4h-9.176m30.824 0l-4 4h9.176v-4h-5.176m-10 10l-3.998 4h19.17v-4h-15.176"/></svg>
